svgs/thin/bags-shopping.svg

<svg xmlns="http://www.w3.org/2000/svg" viewBox="0 0 576 512"><!--! Font Awesome Pro 6.6.0 by @fontawesome - https://fontawesome.com License - https://fontawesome.com/license (Commercial License) Copyright 2024 Fonticons, Inc. --><path d="M144 96c0-44.2 35.8-80 80-80s80 35.8 80 80l0 64-160 0 0-64zm-16 64l-64 0c-35.3 0-64 28.7-64 64L0 416c0 35.3 28.7 64 64 64l96 0 0-16-96 0c-26.5 0-48-21.5-48-48l0-192c0-26.5 21.5-48 48-48l320 0c26.5 0 48 21.5 48 48l16 0c0-35.3-28.7-64-64-64l-64 0 0-64c0-53-43-96-96-96s-96 43-96 96l0 64zM512 272c26.5 0 48 21.5 48 48l0 128c0 26.5-21.5 48-48 48l-256 0c-26.5 0-48-21.5-48-48l0-128c0-26.5 21.5-48 48-48l256 0zM192 320l0 128c0 35.3 28.7 64 64 64l256 0c35.3 0 64-28.7 64-64l0-128c0-35.3-28.7-64-64-64l-256 0c-35.3 0-64 28.7-64 64zm128 8c0-4.4-3.6-8-8-8s-8 3.6-8 8l0 40c0 44.2 35.8 80 80 80s80-35.8 80-80l0-40c0-4.4-3.6-8-8-8s-8 3.6-8 8l0 40c0 35.3-28.7 64-64 64s-64-28.7-64-64l0-40z"/></svg>

<svg xmlns="http://www.w3.org/2000/svg" viewBox="0 0 576 512"><!--! Font Awesome Pro 6.4.0 by @fontawesome - https://fontawesome.com License - https://fontawesome.com/license (Commercial License) Copyright 2023 Fonticons, Inc. --><path d="M144 96c0-44.2 35.8-80 80-80s80 35.8 80 80v64H144V96zm-16 64H64c-35.3 0-64 28.7-64 64V416c0 35.3 28.7 64 64 64h96V464H64c-26.5 0-48-21.5-48-48V224c0-26.5 21.5-48 48-48H384c26.5 0 48 21.5 48 48h16c0-35.3-28.7-64-64-64H320V96c0-53-43-96-96-96s-96 43-96 96v64zM512 272c26.5 0 48 21.5 48 48V448c0 26.5-21.5 48-48 48H256c-26.5 0-48-21.5-48-48V320c0-26.5 21.5-48 48-48H512zM192 320V448c0 35.3 28.7 64 64 64H512c35.3 0 64-28.7 64-64V320c0-35.3-28.7-64-64-64H256c-35.3 0-64 28.7-64 64zm128 8c0-4.4-3.6-8-8-8s-8 3.6-8 8v40c0 44.2 35.8 80 80 80s80-35.8 80-80V328c0-4.4-3.6-8-8-8s-8 3.6-8 8v40c0 35.3-28.7 64-64 64s-64-28.7-64-64V328z"/></svg>
